X: 1
T: Pajalle
R: waltz
O: J.P.Nystr\"om, K.Alml\"of
B:
D:
Z: 1998 by John Chambers <jc@trillian.mit.edu>
N:
M: 3/4
L: 1/8
K: G
|: Bc \
| "G"d2 dB dg | d2- dc Bd | "Am"c2 cB ce | c2- cB AF \
| "D7"D2 F2 A2 | c2 B2 A2 |1,3 "G"G3 B B2 | B2 :|2,4 "G"G3 G G2 | G2 :|
|: Bc \
| "G"d2 d3 B | G6 | GB [Bd]d cB | "Am"A6 \
| A2 A3 B | "C"c6 | e2 f3 e | "D7"d4 Bc |
| "G"d2 B2A2 | "Em"G6 | G2 B2 G2 | "C"E6 \
|  E2 F2 E2 | "D7"D4 {DFA}c2 | B4 A2 | "G"G3 {A}G {F}G2 | G2 :|
